X: 1
T: Gan Ainm
M: 4/4
L: 1/8
R: reel
K: Amin
|: e2de cdB2 | cABG E2E2 | e2de cd (3Bcd | eEBG A2A2 :|
|: cedB cABG | AEGB E2AB | cedc/d/ eEGE | AEGB A2A2 :|
